X:82
T:Punk's Delight,The,(New Way). (p)1651.PLFD.082
M:C
L:1/4
Q:1/2=100
S:Playford, Dancing Master,1st Ed.,1651.
O:England
H:1651.
Z:Chris Partington.
K:G
A>AA>A|A2F2|G>BA>G|d2B2|
A>Bc>c|f2F2|G>BA>G|d2B2:|
|:A>FD>B|A>FD>D|G>BA>G|d2B2|
A>FD>B|A>FD>D|G>BA>G|d2B2:|
M:C|
L:1/8
Q:1/2=50
"_From 17th Ed"AAAA A2F2|G(A/B/) (c/B/)(A/G/) Bd2B|\
ccec eg2 G/A/|
B(A/B/) (c/B/)(A/G/) Bd2B|AFD(f/g/) (a/g/)(f/e/) d(e/f/)|gBAG Bd2B:|
